src/16/actions/xc_crosshair.svg

<svg xmlns="http://www.w3.org/2000/svg" width="16" height="16"><defs><style id="current-color-scheme" type="text/css"></style></defs><path d="M6 0v6h4V0H6zm4 6v4h6V6h-6zm0 4H6v6h4v-6zm-4 0V6H0v4h6z" fill="currentColor" color="#565656"/></svg>

<svg xmlns="http://www.w3.org/2000/svg" width="16" height="16" version="1.1" viewBox="0 0 16 16">
 <defs>
  <style id="current-color-scheme" type="text/css">
   .ColorScheme-Text { color:#565656; } .ColorScheme-Highlight { color:#5294e2; }
  </style>
 </defs>
 <path style="fill:currentColor" class="ColorScheme-Text" d="M 6 0 L 6 6 L 10 6 L 10 0 L 6 0 z M 10 6 L 10 10 L 16 10 L 16 6 L 10 6 z M 10 10 L 6 10 L 6 16 L 10 16 L 10 10 z M 6 10 L 6 6 L 0 6 L 0 10 L 6 10 z"/>
</svg>
